packages/bezier-icons/icons/package.svg

<svg width="24" height="24" viewBox="0 0 24 24" fill="none" xmlns="http://www.w3.org/2000/svg">
<path fill-rule="evenodd" clip-rule="evenodd" d="M13 2.5774C12.3812 2.22013 11.6188 2.22013 11 2.5774L4 6.61885C3.3812 6.97611 3 7.63637 3 8.3509V16.4338C3 17.1483 3.3812 17.8086 4 18.1659L11 22.2073C11.6188 22.5646 12.3812 22.5646 13 22.2073L20 18.1659C20.6188 17.8086 21 17.1483 21 16.4338V8.3509C21 7.63637 20.6188 6.97611 20 6.61885L13 2.5774ZM9.92926 5.37741L12 4.18187L18.3042 7.82161L16.1982 9.03256L9.92926 5.37741ZM7.94029 6.52575L5.6958 7.8216L12 11.4465L14.2491 10.1533L7.94029 6.52575ZM4.88951 9.66504V16.4976L11.0002 20.0256V13.1787L4.88951 9.66504ZM13.0002 20.0254L19.1105 16.4976V9.66505L16.9932 10.8825C16.9977 10.9211 17 10.9603 17 11V13C17 13.5523 16.5523 14 16 14C15.4477 14 15 13.5523 15 13V12.0286L13.0002 13.1785V20.0254Z" fill="#313234"/>
</svg>

<svg xmlns="http://www.w3.org/2000/svg" width="24" height="24" fill="none" viewBox="0 0 24 24"><path fill="#313234" fill-rule="evenodd" d="M13 2.577a2 2 0 0 0-2 0L4 6.62A2 2 0 0 0 3 8.35v8.083a2 2 0 0 0 1 1.732l7 4.041a2 2 0 0 0 2 0l7-4.041a2 2 0 0 0 1-1.732V8.35a2 2 0 0 0-1-1.732zm-3.07 2.8L12 4.182l6.304 3.64-2.106 1.21zM7.94 6.526 5.696 7.822 12 11.447l2.25-1.294zM4.89 9.665v6.833L11 20.026v-6.847zM13 20.025l6.11-3.527V9.665l-2.117 1.218Q17 10.94 17 11v2a1 1 0 1 1-2 0v-.971l-2 1.15z" clip-rule="evenodd"/></svg>
